X:1
T:Jefferson and Liberty Counterpoint
C:copyright 1998 Jim Thompson
N:To be played with ``Jefferson and Liberty''
R:Jig
E:20
M:6/8
K:Am
|:a3 e3|agf e3|g3 d3|gfe d3|
a3 e3|agf e3|abc' bag|aba a3:|
|:a3 e3|bga b3|c'ba c'ba|g3 d3|
T:Play ending 2 only the last time through:
a3 e3|abc' d'3|c'ba ^geg|[1 aba a3:|2 a3 a'3|]
